actions/48/appointment-new.svg

<?xml version="1.0" encoding="UTF-8" standalone="no"?>
<!-- Created with Inkscape (http://www.inkscape.org/) -->

<svg
   xmlns:dc="http://purl.org/dc/elements/1.1/"
   xmlns:cc="http://creativecommons.org/ns#"
   xmlns:rdf="http://www.w3.org/1999/02/22-rdf-syntax-ns#"
   xmlns:svg="http://www.w3.org/2000/svg"
   xmlns="http://www.w3.org/2000/svg"
   xmlns:xlink="http://www.w3.org/1999/xlink"
   xmlns:inkscape="http://www.inkscape.org/namespaces/inkscape"
   version="1.0"
   width="48"
   height="48"
   id="svg5555">
  <metadata
     id="metadata64">
    <rdf:RDF>
      <cc:Work
         rdf:about="">
        <dc:format>image/svg+xml</dc:format>
        <dc:type
           rdf:resource="http://purl.org/dc/dcmitype/StillImage" />
      </cc:Work>
    </rdf:RDF>
  </metadata>
  <defs
     id="defs5557">
    <linearGradient
       id="linearGradient4222">
      <stop
         id="stop4224"
         style="stop-color:#ffffff;stop-opacity:1"
         offset="0" />
      <stop
         id="stop4226"
         style="stop-color:#ffffff;stop-opacity:0"
         offset="1" />
    </linearGradient>
    <linearGradient
       x1="24.138529"
       y1="6.5316639"
       x2="24.138529"
       y2="45.690399"
       id="linearGradient2583"
       xlink:href="#linearGradient4222"
       gradientUnits="userSpaceOnUse"
       gradientTransform="matrix(0.5399382,0,0,0.5366811,-39.283657,23.13804)" />
    <linearGradient
       id="linearGradient2264">
      <stop
         id="stop2266"
         style="stop-color:#d7e866;stop-opacity:1"
         offset="0" />
      <stop
         id="stop2268"
         style="stop-color:#8cab2a;stop-opacity:1"
         offset="1" />
    </linearGradient>
    <linearGradient
       x1="24.103895"
       y1="15.180944"
       x2="24.103895"
       y2="34.224861"
       id="linearGradient2581"
       xlink:href="#linearGradient2264"
       gradientUnits="userSpaceOnUse"
       gradientTransform="matrix(0.8988874,0,0,0.8934652,-47.898438,15.078266)" />
    <linearGradient
       id="linearGradient3227">
      <stop
         id="stop3229"
         style="stop-color:#4d4d4d;stop-opacity:1"
         offset="0" />
      <stop
         id="stop3231"
         style="stop-color:#333333;stop-opacity:1"
         offset="1" />
    </linearGradient>
    <linearGradient
       id="linearGradient8838">
      <stop
         id="stop8840"
         style="stop-color:#000000;stop-opacity:1"
         offset="0" />
      <stop
         id="stop8842"
         style="stop-color:#000000;stop-opacity:0"
         offset="1" />
    </linearGradient>
    <linearGradient
       id="linearGradient3334-995-903-143-677-209-356-728">
      <stop
         id="stop5026"
         style="stop-color:#808080;stop-opacity:1"
         offset="0" />
      <stop
         id="stop5028"
         style="stop-color:#6d6d6d;stop-opacity:1"
         offset="0.87326682" />
      <stop
         id="stop5030"
         style="stop-color:#4f5053;stop-opacity:1"
         offset="1" />
    </linearGradient>
    <linearGradient
       id="linearGradient2480">
      <stop
         id="stop2482"
         style="stop-color:#636467;stop-opacity:1"
         offset="0" />
      <stop
         id="stop2484"
         style="stop-color:#4a4a4a;stop-opacity:1"
         offset="1" />
    </linearGradient>
    <linearGradient
       id="linearGradient3268">
      <stop
         id="stop3270"
         style="stop-color:#ffffff;stop-opacity:1"
         offset="0" />
      <stop
         id="stop3272"
         style="stop-color:#d8d8d8;stop-opacity:1"
         offset="1" />
    </linearGradient>
    <linearGradient
       id="linearGradient3996">
      <stop
         id="stop3998"
         style="stop-color:#ffffff;stop-opacity:1"
         offset="0" />
      <stop
         id="stop4000"
         style="stop-color:#ffffff;stop-opacity:0"
         offset="1" />
    </linearGradient>
    <linearGradient
       id="linearGradient3708">
      <stop
         id="stop3710"
         style="stop-color:#000000;stop-opacity:1"
         offset="0" />
      <stop
         id="stop3712"
         style="stop-color:#000000;stop-opacity:1"
         offset="1" />
    </linearGradient>
    <linearGradient
       id="linearGradient3301">
      <stop
         id="stop3303"
         style="stop-color:#ffffff;stop-opacity:0"
         offset="0" />
      <stop
         id="stop3309"
         style="stop-color:#ffffff;stop-opacity:0"
         offset="0.69999999" />
      <stop
         id="stop3305"
         style="stop-color:#000000;stop-opacity:1"
         offset="1" />
    </linearGradient>
    <radialGradient
       cx="24"
       cy="24"
       r="17"
       fx="24"
       fy="24"
       id="radialGradient3199"
       xlink:href="#linearGradient3301"
       gradientUnits="userSpaceOnUse" />
    <linearGradient
       x1="29.050154"
       y1="7.0280032"
       x2="29.050154"
       y2="26.493914"
       id="linearGradient3201"
       xlink:href="#linearGradient3708"
       gradientUnits="userSpaceOnUse"
       gradientTransform="matrix(1,0,0,-1,1e-6,47.999998)" />
    <linearGradient
       x1="24.397675"
       y1="3.6018722"
       x2="24.397675"
       y2="26.091318"
       id="linearGradient3212"
       xlink:href="#linearGradient3996"
       gradientUnits="userSpaceOnUse"
       gradientTransform="translate(-0.3976755,0.3981273)" />
    <radialGradient
       cx="27.411848"
       cy="12.080106"
       r="18.000002"
       fx="27.411848"
       fy="12.080106"
       id="radialGradient3215"
       xlink:href="#linearGradient3268"
       gradientUnits="userSpaceOnUse"
       gradientTransform="matrix(1.7637903e-8,1.7731075,-2.6591116,2.6451386e-8,59.480381,-17.99927)" />
    <linearGradient
       x1="29.050154"
       y1="7.0280032"
       x2="29.050154"
       y2="40.320171"
       id="linearGradient3217"
       xlink:href="#linearGradient2480"
       gradientUnits="userSpaceOnUse"
       gradientTransform="matrix(1.0606061,0,0,1.060606,-1.4545467,-1.4545435)" />
    <radialGradient
       cx="24.011986"
       cy="24.003313"
       r="21"
       fx="24.011986"
       fy="24.003313"
       id="radialGradient3220"
       xlink:href="#linearGradient3334-995-903-143-677-209-356-728"
       gradientUnits="userSpaceOnUse"
       gradientTransform="matrix(0.9532054,0,0,0.9532054,1.1236313,1.1232247)" />
    <linearGradient
       x1="7.5542169"
       y1="2.9999976"
       x2="7.5542169"
       y2="45.184376"
       id="linearGradient3222"
       xlink:href="#linearGradient3227"
       gradientUnits="userSpaceOnUse" />
    <radialGradient
       cx="62.625"
       cy="4.625"
       r="10.625"
       fx="62.625"
       fy="4.625"
       id="radialGradient3225"
       xlink:href="#linearGradient8838"
       gradientUnits="userSpaceOnUse"
       gradientTransform="matrix(2.1647059,0,0,0.7529402,-111.56471,36.517647)" />
  </defs>
  <path
     d="m 46.999997,40 c 0,4.418278 -10.297452,8 -23,8 -12.702548,0 -23.0000002,-3.581722 -23.0000002,-8 0,-4.418278 10.2974522,-8 23.0000002,-8 12.702548,0 23,3.581722 23,8 l 0,0 z"
     inkscape:connector-curvature="0"
     id="path8836"
     style="opacity:0.3;fill:url(#radialGradient3225);fill-opacity:1;fill-rule:evenodd;stroke:none;stroke-width:0.99999988;marker:none;visibility:visible;display:inline;overflow:visible" />
  <path
     d="M 44.5,23.999273 C 44.5,35.321475 35.32116,44.5 24.000257,44.5 12.678317,44.5 3.5,35.321371 3.5,23.999273 3.5,12.67759 12.678317,3.499998 24.000257,3.499998 35.32116,3.499998 44.5,12.67759 44.5,23.999273 l 0,0 z"
     inkscape:connector-curvature="0"
     id="path6495"
     style="fill:url(#radialGradient3220);fill-opacity:1;fill-rule:nonzero;stroke:url(#linearGradient3222);stroke-width:1;stroke-miterlimit:4;stroke-opacity:1;stroke-dasharray:none" />
  <path
     d="m 41.500001,23.999379 c 0,9.665293 -7.835596,17.500619 -17.49978,17.500619 -9.665072,0 -17.5002223,-7.835415 -17.5002223,-17.500619 0,-9.664851 7.8351503,-17.4993792 17.5002223,-17.4993792 9.664184,0 17.49978,7.8345282 17.49978,17.4993792 l 0,0 0,0 0,0 z"
     inkscape:connector-curvature="0"
     id="path3215"
     style="fill:url(#radialGradient3215);fill-opacity:1;fill-rule:nonzero;stroke:url(#linearGradient3217);stroke-width:0.99999994;stroke-miterlimit:4;stroke-dasharray:none" />
  <path
     d="m 43.5,23.999308 c 0,10.769898 -8.731091,19.50069 -19.499755,19.50069 -10.769651,0 -19.5002455,-8.730891 -19.5002455,-19.50069 0,-10.769404 8.7305945,-19.4993084 19.5002455,-19.4993084 C 34.768909,4.4999996 43.5,13.229904 43.5,23.999308 l 0,0 z"
     inkscape:connector-curvature="0"
     id="path3222"
     style="opacity:0.4;fill:none;stroke:url(#linearGradient3212);stroke-width:1;stroke-miterlimit:4;stroke-opacity:1;stroke-dasharray:none" />
  <path
     d="m 9.861727,24.537057 c 2.766321,0 3.11659,-0.07959 3.11659,-0.07959"
     inkscape:connector-curvature="0"
     id="path2291"
     style="opacity:0.3;fill:none;stroke:#000000;stroke-width:0.92588592;stroke-linecap:round;stroke-linejoin:miter;stroke-miterlimit:4;stroke-opacity:1;stroke-dasharray:none" />
  <path
     d="m 35.02168,24.537057 c 2.766323,0 3.116593,-0.07959 3.116593,-0.07959"
     inkscape:connector-curvature="0"
     id="path2296"
     style="opacity:0.3;fill:none;stroke:#000000;stroke-width:0.92588592;stroke-linecap:round;stroke-linejoin:miter;stroke-miterlimit:4;stroke-opacity:1;stroke-dasharray:none" />
  <path
     d="m 23.542531,38.03347 c 0,-2.76632 -0.07959,-3.11659 -0.07959,-3.11659"
     inkscape:connector-curvature="0"
     id="path2306"
     style="opacity:0.3;fill:none;stroke:#000000;stroke-width:0.92588592;stroke-linecap:round;stroke-linejoin:miter;stroke-miterlimit:4;stroke-opacity:1;stroke-dasharray:none" />
  <path
     d="m 23.542531,13.08316 c 0,-2.766358 -0.07959,-3.1166315 -0.07959,-3.1166315"
     inkscape:connector-curvature="0"
     id="path2308"
     style="opacity:0.3;fill:none;stroke:#000000;stroke-width:0.92588592;stroke-linecap:round;stroke-linejoin:miter;stroke-miterlimit:4;stroke-opacity:1;stroke-dasharray:none" />
  <g
     transform="matrix(0.5733387,0,0,0.5733387,10.842297,11.895428)"
     id="g2318"
     style="stroke-width:1.61490202;stroke-linecap:round;stroke-miterlimit:4;stroke-dasharray:none">
    <path
       d="M 21.168246,23.652869 40.199004,4.6221125"
       inkscape:connector-curvature="0"
       id="path2312"
       style="fill:none;stroke:#000000;stroke-width:1.61490202;stroke-linecap:round;stroke-linejoin:miter;stroke-miterlimit:4;stroke-opacity:1;stroke-dasharray:none" />
    <path
       d="M 24.25811,23.793317 11.547531,11.082739"
       inkscape:connector-curvature="0"
       id="path2314"
       style="fill:none;stroke:#000000;stroke-width:1.61490202;stroke-linecap:round;stroke-linejoin:miter;stroke-miterlimit:4;stroke-opacity:1;stroke-dasharray:none" />
    <path
       d="M 21.589592,22.66973 43.260774,16.862955"
       inkscape:connector-curvature="0"
       id="path2316"
       style="fill:#ff0000;fill-rule:evenodd;stroke:#ff0000;stroke-width:1.61490202;stroke-linecap:round;stroke-linejoin:miter;stroke-miterlimit:4;stroke-opacity:1;stroke-dasharray:none" />
  </g>
  <path
     d="M 40.5,24.000585 C 40.5,14.887594 33.112152,7.4999999 24.000208,7.4999999 14.887427,7.4999999 7.5,14.887677 7.5,24.000585 7.5,33.113159 14.887427,40.5 24.000208,40.5 33.112152,40.5 40.5,33.113159 40.5,24.000585 l 0,0 z"
     inkscape:connector-curvature="0"
     id="path3215-4"
     style="opacity:0.2;fill:url(#radialGradient3199);fill-opacity:1;stroke:url(#linearGradient3201);stroke-width:0.99999988;stroke-miterlimit:4;stroke-dasharray:none" />
  <g
     transform="translate(64.434734,2.355762)"
     id="g2577">
    <path
       d="m -29.868354,32.139057 0,-5.994819 6.93362,0 0,5.994819 6,0 0,7.005181 -6,0 0,6 -6.939728,0 -0.02787,-6 -6.032403,0 0,-7.005181 6.06638,0 z"
       inkscape:connector-curvature="0"
       id="path2543"
       style="fill:url(#linearGradient2581);fill-opacity:1;fill-rule:evenodd;stroke:#699536;stroke-width:1;stroke-linecap:butt;stroke-linejoin:round;stroke-miterlimit:4;stroke-opacity:1;stroke-dasharray:none;display:inline" />
    <path
       d="m -28.934734,33.139057 0,-5.994819 5,0 0,5.994819 6,0 0,5.005181 -6,0 0,6 -5,0 0,-6 -6,0 0,-5.005181 6,0 z"
       inkscape:connector-curvature="0"
       id="path2545"
       style="opacity:0.4;fill:none;stroke:url(#linearGradient2583);stroke-width:1;stroke-linecap:butt;stroke-linejoin:miter;stroke-miterlimit:4;stroke-opacity:1;stroke-dasharray:none;display:inline" />
  </g>
</svg>

<?xml version="1.0" encoding="UTF-8" standalone="no"?>
<!-- Created with Inkscape (http://www.inkscape.org/) -->
<svg
   xmlns:svg="http://www.w3.org/2000/svg"
   xmlns="http://www.w3.org/2000/svg"
   xmlns:xlink="http://www.w3.org/1999/xlink"
   version="1.0"
   width="48"
   height="48"
   id="svg5555">
  <defs
     id="defs5557">
    <linearGradient
       id="linearGradient4222">
      <stop
         id="stop4224"
         style="stop-color:#ffffff;stop-opacity:1"
         offset="0" />
      <stop
         id="stop4226"
         style="stop-color:#ffffff;stop-opacity:0"
         offset="1" />
    </linearGradient>
    <linearGradient
       x1="24.138529"
       y1="6.5316639"
       x2="24.138529"
       y2="45.690399"
       id="linearGradient2583"
       xlink:href="#linearGradient4222"
       gradientUnits="userSpaceOnUse"
       gradientTransform="matrix(0.5399382,0,0,0.5366811,-39.283657,23.13804)" />
    <linearGradient
       id="linearGradient2264">
      <stop
         id="stop2266"
         style="stop-color:#d7e866;stop-opacity:1"
         offset="0" />
      <stop
         id="stop2268"
         style="stop-color:#8cab2a;stop-opacity:1"
         offset="1" />
    </linearGradient>
    <linearGradient
       x1="24.103895"
       y1="15.180944"
       x2="24.103895"
       y2="34.224861"
       id="linearGradient2581"
       xlink:href="#linearGradient2264"
       gradientUnits="userSpaceOnUse"
       gradientTransform="matrix(0.8988874,0,0,0.8934652,-47.898438,15.078266)" />
    <linearGradient
       id="linearGradient3227">
      <stop
         id="stop3229"
         style="stop-color:#4d4d4d;stop-opacity:1"
         offset="0" />
      <stop
         id="stop3231"
         style="stop-color:#333333;stop-opacity:1"
         offset="1" />
    </linearGradient>
    <linearGradient
       id="linearGradient8838">
      <stop
         id="stop8840"
         style="stop-color:#000000;stop-opacity:1"
         offset="0" />
      <stop
         id="stop8842"
         style="stop-color:#000000;stop-opacity:0"
         offset="1" />
    </linearGradient>
    <linearGradient
       id="linearGradient3334-995-903-143-677-209-356-728">
      <stop
         id="stop5026"
         style="stop-color:#808080;stop-opacity:1"
         offset="0" />
      <stop
         id="stop5028"
         style="stop-color:#6d6d6d;stop-opacity:1"
         offset="0.87326682" />
      <stop
         id="stop5030"
         style="stop-color:#4f5053;stop-opacity:1"
         offset="1" />
    </linearGradient>
    <linearGradient
       id="linearGradient2480">
      <stop
         id="stop2482"
         style="stop-color:#636467;stop-opacity:1"
         offset="0" />
      <stop
         id="stop2484"
         style="stop-color:#4a4a4a;stop-opacity:1"
         offset="1" />
    </linearGradient>
    <linearGradient
       id="linearGradient3268">
      <stop
         id="stop3270"
         style="stop-color:#ffffff;stop-opacity:1"
         offset="0" />
      <stop
         id="stop3272"
         style="stop-color:#d8d8d8;stop-opacity:1"
         offset="1" />
    </linearGradient>
    <linearGradient
       id="linearGradient3996">
      <stop
         id="stop3998"
         style="stop-color:#ffffff;stop-opacity:1"
         offset="0" />
      <stop
         id="stop4000"
         style="stop-color:#ffffff;stop-opacity:0"
         offset="1" />
    </linearGradient>
    <linearGradient
       id="linearGradient3708">
      <stop
         id="stop3710"
         style="stop-color:#000000;stop-opacity:1"
         offset="0" />
      <stop
         id="stop3712"
         style="stop-color:#000000;stop-opacity:1"
         offset="1" />
    </linearGradient>
    <linearGradient
       id="linearGradient3301">
      <stop
         id="stop3303"
         style="stop-color:#ffffff;stop-opacity:0"
         offset="0" />
      <stop
         id="stop3309"
         style="stop-color:#ffffff;stop-opacity:0"
         offset="0.69999999" />
      <stop
         id="stop3305"
         style="stop-color:#000000;stop-opacity:1"
         offset="1" />
    </linearGradient>
    <radialGradient
       cx="24"
       cy="24"
       r="17"
       fx="24"
       fy="24"
       id="radialGradient3199"
       xlink:href="#linearGradient3301"
       gradientUnits="userSpaceOnUse" />
    <linearGradient
       x1="29.050154"
       y1="7.0280032"
       x2="29.050154"
       y2="26.493914"
       id="linearGradient3201"
       xlink:href="#linearGradient3708"
       gradientUnits="userSpaceOnUse"
       gradientTransform="matrix(1,0,0,-1,1e-6,47.999998)" />
    <linearGradient
       x1="24.397675"
       y1="3.6018722"
       x2="24.397675"
       y2="26.091318"
       id="linearGradient3212"
       xlink:href="#linearGradient3996"
       gradientUnits="userSpaceOnUse"
       gradientTransform="translate(-0.3976755,0.3981273)" />
    <radialGradient
       cx="27.411848"
       cy="12.080106"
       r="18.000002"
       fx="27.411848"
       fy="12.080106"
       id="radialGradient3215"
       xlink:href="#linearGradient3268"
       gradientUnits="userSpaceOnUse"
       gradientTransform="matrix(1.7637903e-8,1.7731075,-2.6591116,2.6451386e-8,59.480381,-17.99927)" />
    <linearGradient
       x1="29.050154"
       y1="7.0280032"
       x2="29.050154"
       y2="40.320171"
       id="linearGradient3217"
       xlink:href="#linearGradient2480"
       gradientUnits="userSpaceOnUse"
       gradientTransform="matrix(1.0606061,0,0,1.060606,-1.4545467,-1.4545435)" />
    <radialGradient
       cx="24.011986"
       cy="24.003313"
       r="21"
       fx="24.011986"
       fy="24.003313"
       id="radialGradient3220"
       xlink:href="#linearGradient3334-995-903-143-677-209-356-728"
       gradientUnits="userSpaceOnUse"
       gradientTransform="matrix(0.9532054,0,0,0.9532054,1.1236313,1.1232247)" />
    <linearGradient
       x1="7.5542169"
       y1="2.9999976"
       x2="7.5542169"
       y2="45.184376"
       id="linearGradient3222"
       xlink:href="#linearGradient3227"
       gradientUnits="userSpaceOnUse" />
    <radialGradient
       cx="62.625"
       cy="4.625"
       r="10.625"
       fx="62.625"
       fy="4.625"
       id="radialGradient3225"
       xlink:href="#linearGradient8838"
       gradientUnits="userSpaceOnUse"
       gradientTransform="matrix(2.1647059,0,0,0.7529402,-111.56471,36.517647)" />
  </defs>
  <path
     d="M 46.999997,40 C 46.999997,44.418278 36.702545,48 23.999997,48 C 11.297449,48 0.9999968,44.418278 0.9999968,40 C 0.9999968,35.581722 11.297449,32 23.999997,32 C 36.702545,32 46.999997,35.581722 46.999997,40 L 46.999997,40 z"
     id="path8836"
     style="opacity:0.3;fill:url(#radialGradient3225);fill-opacity:1;fill-rule:evenodd;stroke:none;stroke-width:0.99999988;marker:none;visibility:visible;display:inline;overflow:visible" />
  <path
     d="M 44.5,23.999273 C 44.5,35.321475 35.32116,44.5 24.000257,44.5 C 12.678317,44.5 3.5,35.321371 3.5,23.999273 C 3.5,12.67759 12.678317,3.499998 24.000257,3.499998 C 35.32116,3.499998 44.5,12.67759 44.5,23.999273 L 44.5,23.999273 z"
     id="path6495"
     style="fill:url(#radialGradient3220);fill-opacity:1;fill-rule:nonzero;stroke:url(#linearGradient3222);stroke-width:1;stroke-miterlimit:4;stroke-dasharray:none;stroke-opacity:1" />
  <path
     d="M 41.500001,23.999379 C 41.500001,33.664672 33.664405,41.499998 24.000221,41.499998 C 14.335149,41.499998 6.4999987,33.664583 6.4999987,23.999379 C 6.4999987,14.334528 14.335149,6.4999998 24.000221,6.4999998 C 33.664405,6.4999998 41.500001,14.334528 41.500001,23.999379 L 41.500001,23.999379 L 41.500001,23.999379 L 41.500001,23.999379 z"
     id="path3215"
     style="fill:url(#radialGradient3215);fill-opacity:1;fill-rule:nonzero;stroke:url(#linearGradient3217);stroke-width:0.99999994;stroke-miterlimit:4;stroke-dasharray:none" />
  <path
     d="M 43.5,23.999308 C 43.5,34.769206 34.768909,43.499998 24.000245,43.499998 C 13.230594,43.499998 4.4999995,34.769107 4.4999995,23.999308 C 4.4999995,13.229904 13.230594,4.4999996 24.000245,4.4999996 C 34.768909,4.4999996 43.5,13.229904 43.5,23.999308 L 43.5,23.999308 z"
     id="path3222"
     style="opacity:0.4;fill:none;stroke:url(#linearGradient3212);stroke-width:1;stroke-miterlimit:4;stroke-dasharray:none;stroke-opacity:1" />
  <path
     d="M 9.861727,24.537057 C 12.628048,24.537057 12.978317,24.45747 12.978317,24.45747"
     id="path2291"
     style="opacity:0.3;fill:none;fill-opacity:1;fill-rule:evenodd;stroke:#000000;stroke-width:0.92588592;stroke-linecap:round;stroke-linejoin:miter;stroke-miterlimit:4;stroke-dasharray:none;stroke-opacity:1" />
  <path
     d="M 35.02168,24.537057 C 37.788003,24.537057 38.138273,24.45747 38.138273,24.45747"
     id="path2296"
     style="opacity:0.3;fill:none;fill-opacity:1;fill-rule:evenodd;stroke:#000000;stroke-width:0.92588592;stroke-linecap:round;stroke-linejoin:miter;stroke-miterlimit:4;stroke-dasharray:none;stroke-opacity:1" />
  <path
     d="M 23.542531,38.03347 C 23.542531,35.26715 23.462943,34.91688 23.462943,34.91688"
     id="path2306"
     style="opacity:0.3;fill:none;fill-opacity:1;fill-rule:evenodd;stroke:#000000;stroke-width:0.92588592;stroke-linecap:round;stroke-linejoin:miter;stroke-miterlimit:4;stroke-dasharray:none;stroke-opacity:1" />
  <path
     d="M 23.542531,13.08316 C 23.542531,10.316802 23.462943,9.9665285 23.462943,9.9665285"
     id="path2308"
     style="opacity:0.3;fill:none;fill-opacity:1;fill-rule:evenodd;stroke:#000000;stroke-width:0.92588592;stroke-linecap:round;stroke-linejoin:miter;stroke-miterlimit:4;stroke-dasharray:none;stroke-opacity:1" />
  <g
     transform="matrix(0.5733387,0,0,0.5733387,10.842297,11.895428)"
     id="g2318"
     style="stroke-width:1.61490202;stroke-linecap:round;stroke-miterlimit:4;stroke-dasharray:none">
    <path
       d="M 21.168246,23.652869 L 40.199004,4.6221125"
       id="path2312"
       style="fill:none;fill-rule:evenodd;stroke:#000000;stroke-width:1.61490202;stroke-linecap:round;stroke-linejoin:miter;stroke-miterlimit:4;stroke-dasharray:none;stroke-opacity:1" />
    <path
       d="M 24.25811,23.793317 L 11.547531,11.082739"
       id="path2314"
       style="fill:none;fill-rule:evenodd;stroke:#000000;stroke-width:1.61490202;stroke-linecap:round;stroke-linejoin:miter;stroke-miterlimit:4;stroke-dasharray:none;stroke-opacity:1" />
    <path
       d="M 21.589592,22.66973 L 43.260774,16.862955"
       id="path2316"
       style="fill:#ff0000;fill-rule:evenodd;stroke:#ff0000;stroke-width:1.61490202;stroke-linecap:round;stroke-linejoin:miter;stroke-miterlimit:4;stroke-dasharray:none;stroke-opacity:1" />
  </g>
  <path
     d="M 40.5,24.000585 C 40.5,14.887594 33.112152,7.4999999 24.000208,7.4999999 C 14.887427,7.4999999 7.5,14.887677 7.5,24.000585 C 7.5,33.113159 14.887427,40.5 24.000208,40.5 C 33.112152,40.5 40.5,33.113159 40.5,24.000585 L 40.5,24.000585 z"
     id="path3215-4"
     style="opacity:0.2;fill:url(#radialGradient3199);fill-opacity:1;stroke:url(#linearGradient3201);stroke-width:0.99999988;stroke-miterlimit:4;stroke-dasharray:none" />
  <g
     transform="translate(64.434734,2.355762)"
     id="g2577">
    <path
       d="M -29.868354,32.139057 L -29.868354,26.144238 L -22.934734,26.144238 L -22.934734,32.139057 L -16.934734,32.139057 L -16.934734,39.144238 L -22.934734,39.144238 L -22.934734,45.144238 L -29.874462,45.144238 L -29.902331,39.144238 L -35.934734,39.144238 L -35.934734,32.139057 L -29.868354,32.139057 z"
       id="path2543"
       style="fill:url(#linearGradient2581);fill-opacity:1;fill-rule:evenodd;stroke:#699536;stroke-width:1;stroke-linecap:butt;stroke-linejoin:round;stroke-miterlimit:4;stroke-dasharray:none;stroke-opacity:1;display:inline" />
    <path
       d="M -28.934734,33.139057 L -28.934734,27.144238 L -23.934734,27.144238 L -23.934734,33.139057 L -17.934734,33.139057 L -17.934734,38.144238 L -23.934734,38.144238 L -23.934734,44.144238 L -28.934734,44.144238 L -28.934734,38.144238 L -34.934734,38.144238 L -34.934734,33.139057 L -28.934734,33.139057 z"
       id="path2545"
       style="opacity:0.4;fill:none;fill-opacity:1;fill-rule:evenodd;stroke:url(#linearGradient2583);stroke-width:1;stroke-linecap:butt;stroke-linejoin:miter;stroke-miterlimit:4;stroke-dasharray:none;stroke-opacity:1;display:inline" />
  </g>
</svg>
